!!!!SEGMENT: pl-kk--kk-i-3--018_anonim--tractus-laus-tibi-christe.krn
!!!cenid: 15xx:625
!!!COM: Anonim
!!!COM-rismid: pe30004985
!!!CDT:
!!!CNT:
!!!OTL: Tractus/Laus Tibi Christe
!!!PDT:
!!!AGN:
!!!SMS-siglum: PL-Kk
!!!SMS-shelfmark: Kk.I.3
!!!SMS-shelfwork: 018 W
!!!SMS-variant:
!!!SMS-altvar:
!!!NIFC-rismid: 1001145515
!!!URL-scan: http://repozytorium.nifc.pl/skany/pl-kk-nut--i-3
!!!ONB-nifc: UWAGA: Discantus (s. 76r-79r, skan 0078-0081), Tenor (s. 53v-55v, skan 0226-0228), Bassus (s. 72v-74v, skan 0376-0378)
**kern	**text	**kern	**text	**kern	**text
*part3	*part3	*part2	*part2	*part1	*part1
*staff3	*staff3	*staff2	*staff2	*staff1	*staff1
*I"Basso	*	*I"Tenore	*	*I"Discantus	*
*I'B	*	*I'T	*	*I'S	*
*ICvox	*	*ICvox	*	*ICvox	*
*Ibass	*	*Itenor	*	*ICsoprn	*
*clefF4	*	*clefF3	*	*clefC4	*
*k[]	*	*k[]	*	*k[]	*
*F:	*	*F:	*	*F:	*
*yyM2/1	*	*yyM2/1	*	*yyM2/1	*
=1	=1	=1	=1	=1	=1
!!LO:TX:t=P:problem: brak metrum	!	!	!	!	!
!	!	!	!	!LO:TX:t=P:problem: Discantus zapisany w kluczu altowym	!
!LO:TX:a:B:t=Tractus	!	!LO:TX:a:B:t=Tractus	!	!LO:TX:a:B:t=Tractus	!
1D	La-	1D	La-	1A	La-
2GG/	-us	1D	-us	2B/	-us
2D/	ti-	.	.	1A	ti-
=2	=2	=2	=2	=2	=2
1AA	-bi	1C	ti-	.	.
.	.	.	.	1c	.
*	*	*lig	*	*	*
1GG	.	1D	-bi	.	.
.	.	.	.	2B/	.
=3	=3	=3	=3	=3	=3
*lig	*	*	*	*	*
1G	.	1C	.	1c	-bi
*	*	*Xlig	*	*	*
1A	.	1AA	.	1c	.
*Xlig	*	*	*	*	*
=4	=4	=4	=4	=4	=4
1G	chri-	1C	chri-	1c	chri-
!LO:SIC:v:t=custos F	!	!	!	!	!
1F	-ste	1D	-ste	1A	-ste
!LO:LB:g=original	!	!	!	!	!
=5	=5	=5	=5	=5	=5
!	!	!	!	!LO:SIC:v:t=custosB	!
2F/	fi-	1D	fi-	2A/	fi-
!	!	!	!	!LO:LB:g=original	!
!	!	!	!	!LO:SIC:s=b-	!
1BB-X	-li-	.	.	1B-X	-lio
.	.	1F	-li-	.	.
2D/	.	.	.	1A	.
=6	=6	=6	=6	=6	=6
!	!	!LO:SIC:v:t=custos D	!	!	!
1AA	-o	1E	-o	.	.
.	.	.	.	2c,/	.
!	!	!LO:LB:g=original	!	!	!
1BB	ma-	1D	Ma-	1d	ma-
=7	=7	=7	=7	=7	=7
!LO:TX:t=P:problem:poprawka w źródle	!	!	!	!	!
1AA	-ri-	1E	-ri-	1c	-ri-
1A	-e	1D	-e	1d,	-e
=8	=8	=8	=8	=8	=8
2A\	tu	1D	tu	1d	tu
2F\	.	.	.	.	.
1A	no-	1F	no-	2c\	no-
.	.	.	.	2A/	-bis
=9	=9	=9	=9	=9	=9
1G	-bis	1E	-bis	2B/	.
.	.	.	.	2c,/	.
2F/	asſi-	1D	aſſi-	1d	as
1D	.	.	.	.	.
=10	=10	=10	=10	=10	=10
.	.	1E	-ste	2B/	ſi-
2C/	.	.	.	2c/	.
!LO:SIC:v:t=custos AA	!	!	!	!	!
*	*	*lig	*	*	*
!	!	!	!	!LO:SIC:v:t=custos d	!
!LO:LB:g=original	!	!	!	!	!
1D	-ste	1D	.	2A/	-ste
!	!	!	!	!LO:LB:g=original	!
.	.	.	.	1d	.
=11	=11	=11	=11	=11	=11
1AA	.	1E	.	.	.
.	.	.	.	2c/	.
*	*	*Xlig	*	*	*
*	*	*lig	*	*	*
1D	.	1F	.	1d	.
=12	=12	=12	=12	=12	=12
2GG/	.	1G	.	1B	.
1G	.	.	.	.	.
*	*	*Xlig	*	*	*
*	*	*lig	*	*	*
.	.	1D	.	2A/	.
2F/	.	.	.	2B/	.
=13	=13	=13	=13	=13	=13
1G	.	1C	.	1c	.
*	*	*Xlig	*	*	*
1G	pre-	1C	pre-	1c	pre-
=14	=14	=14	=14	=14	=14
!	!	!LO:SIC:v:t=custos D	!	!	!
1F	-ca-	1D	-ca-	1A	-ca-
!	!	!LO:LB:g=original	!	!	!
*	*	*lig	*	*	*
1D	-mur	1D	-mur	2A/	-mur
.	.	.	.	1F	.
=15	=15	=15	=15	=15	=15
*lig	*	*	*	*	*
1C	.	1G	.	.	.
.	.	.	.	2E/	.
*	*	*Xlig	*	*	*
1FF	.	1A	.	1F	.
*Xlig	*	*	*	*	*
=16	=16	=16	=16	=16	=16
1BB	in	1D	in	1F	in
!	!	!	!	!LO:SIC:v:t=custos A	!
1GG	hac	1G	hac	1B-X	hac
!	!	!	!	!LO:LB:g=original	!
=17	=17	=17	=17	=17	=17
2FF/	di-	1A	di-	2A/	di-
!LO:SIC:v:t=custos E	!	!	!	!	!
1F	.	.	.	2c/	-e
.	.	1G	-e	1B	.
!LO:LB:g=original	!	!	!	!	!
2E/	-e	.	.	.	.
=18	=18	=18	=18	=18	=18
1F	quo-	1D	quo-	1A	gvo-
1D	-tti-	1F	-tti-	2A/	-tti-
.	.	.	.	1d	-di-
=19	=19	=19	=19	=19	=19
1AA	-di-	1E	-di-	.	.
.	.	.	.	2c\	-e
1BB	-e	1D	-e	1d	.
=20	=20	=20	=20	=20	=20
2AA/	nos	1A	Nos	2c\	-nos
2FF/	.	.	.	1f	pie
1C	pie	1G	pie	.	.
.	.	.	.	2e\	.
=21	=21	=21	=21	=21	=21
1D	.	1F	.	1f	.
!	!	!LO:SIC:v:t=custos F	!	!	!
1BB	res-	1F	res-	1d	-re-
!	!	!LO:LB:g=original	!	!	!
=22	=22	=22	=22	=22	=22
2AA/	-pi-	1F	-pi-	2c\	-spi-
2FF/	.	.	.	1d	.
*	*	*lig	*	*	*
2GG/	.	1E	.	.	.
!	!	!	!	!LO:SIC:v:t=custos d	!
2AA/	.	.	.	2c/	.
!	!	!	!	!LO:LB:g=original	!
=23	=23	=23	=23	=23	=23
2BB/	.	1D	.	2d\	.
2FF/	.	.	.	1c	.
*	*	*Xlig	*	*	*
!LO:SIC:v:t=custos G	!	!	!	!	!
*	*	*lig	*	*	*
1GG	ce	1D	-ce	.	.
.	.	.	.	2B/	-ce
!LO:LB:g=original	!	!	!	!	!
=24	=24	=24	=24	=24	=24
1G	.	1C	.	1c	.
*	*	*Xlig	*	*	*
*	*	*lig	*	*	*
2G\	.	1E	.	1c	.
2E/	.	.	.	.	.
=25	=25	=25	=25	=25	=25
*	*	*	*	*lig	*
1F	.	1D	.	1d	.
*	*	*Xlig	*	*	*
*	*	*lig	*	*	*
1E	.	1E	.	1c	.
*	*	*	*	*Xlig	*
=26	=26	=26	=26	=26	=26
*	*	*	*	*lig	*
1D	.	1F	.	1d	.
*	*	*Xlig	*	*	*
*	*	*lig	*	*	*
1C	.	1G	.	1e	.
*	*	*	*	*Xlig	*
=27	=27	=27	=27	=27	=27
*	*	*	*	*lig	*
1D	.	1D	.	1f	.
*	*	*Xlig	*	*	*
1E	.	1C	.	1e	.
*	*	*	*	*Xlig	*
=28	=28	=28	=28	=28	=28
1F	et	1D	et	1A	et
*	*	*lig	*	*	*
2D/	pre-	1D	pre-	2A/	pre-
1F	.	.	.	2B/	.
=29	=29	=29	=29	=29	=29
.	.	1C	.	1c	.
2E/	.	.	.	.	.
*	*	*Xlig	*	*	*
1F	.	1D	.	1A	.
=30	=30	=30	=30	=30	=30
*	*	*lig	*	*	*
1BB-X	.	1F	.	1d	.
!LO:SIC:v:t=custos C	!	!	!	!LO:SIC:v:t=custos e	!
2BB-/	.	1G	.	2d\	.
!LO:LB:g=original	!	!	!	!	!
!	!	!	!	!LO:LB:g=original	!
2C/	.	.	.	2e\	.
*	*	*Xlig	*	*	*
=31	=31	=31	=31	=31	=31
*	*	*lig	*	*	*
2D/	ces	1F	-ces	2f\	-ces
2BB/	.	.	.	2d\	.
1C	.	1E	.	1e	.
*	*	*Xlig	*	*	*
=32	=32	=32	=32	=32	=32
*lig	*	*	*	*	*
!	!	!LO:SIC:v:t=custos G	!	!	!
1BB	.	1F	.	1d	.
!	!	!LO:LB:g=original	!	!	!
*	*	*lig	*	*	*
1GG	.	1G	.	2d\	.
.	.	.	.	2G/	.
*Xlig	*	*	*	*	*
=33	=33	=33	=33	=33	=33
1AA	.	1F	.	1c	.
*	*	*Xlig	*	*	*
1GG	no-	1G	no-	1d	nos-
=34	=34	=34	=34	=34	=34
1AA	-stras	1C	-stras	1c	-tras
*	*	*	*	*lig	*
1BB	ad	1D	ad	1d	ad
=35	=35	=35	=35	=35	=35
1FF	te	1F	te	1c	.
*	*	*	*	*Xlig	*
1F	di-	1F	di-	1c	te
=36	=36	=36	=36	=36	=36
*	*	*lig	*	*	*
2F/	-ri-	1F	-ri-	2c\	di-
2A\	.	.	.	2d\	-ri-
1G	.	1E	.	1e	.
*	*	*Xlig	*	*	*
*	*	*	*	*clefC3	*
=37	=37	=37	=37	=37	=37
!LO:SIC:v:t=custos D	!	!	!	!	!
1F	.	1D	.	1f	-ge
*	*	*lig	*	*lig	*
!LO:LB:g=original	!	!	!	!	!
2D/	.	1D	-ge	1f	.
2BB-X/	-ge	.	.	.	.
=38	=38	=38	=38	=38	=38
2C/	.	1C	.	1e	.
2AA/	.	.	.	.	.
*	*	*Xlig	*	*Xlig	*
1BB	.	1D	.	2d/	.
.	.	.	.	2g\	.
=39	=39	=39	=39	=39	=39
*	*	*lig	*	*	*
1AA	.	1C	.	1e	.
1A	.	1AA	.	2e/	.
.	.	.	.	1c	.
*	*	*Xlig	*	*	*
=40	=40	=40	=40	=40	=40
*	*	*lig	*	*	*
2A\	.	1D	.	.	.
2F\	.	.	.	2B/	.
1G	.	1C	.	1c	.
*	*	*Xlig	*	*	*
=41	=41	=41	=41	=41	=41
*	*	*lig	*	*	*
1F	.	1D	.	2A/	.
.	.	.	.	1d	.
1E	.	1E	.	.	.
.	.	.	.	2c/	.
*	*	*Xlig	*	*	*
=42	=42	=42	=42	=42	=42
*lig	*	*lig	*	*	*
1D	.	1F	.	1d	.
1GG	.	0D;	.	1B-X	.
*Xlig	*	*Xlig	*	*	*
=43	=43	=43	=43	=43	=43
!LO:SIC:v:t=custos F	!	!	!	!LO:SIC:v:t=custos c	!
1D;	.	.	.	1A;	.
!LO:LB:g=original	!	!	!	!LO:LB:g=original	!
1r	.	1r	.	2r	.
.	.	.	.	2r	.
=44||	=44||	=44||	=44||	=44||	=44||
*lig	*	*lig	*	*	*
1F	O-	1F	O	0c	o
1C	.	1G	.	.	.
*Xlig	*	*Xlig	*	*	*
=45	=45	=45	=45	=45	=45
1FF	-vir-	1A	vir-	2c/	vir-
.	.	.	.	1f	-go
1C	-go	1G	-go	.	.
.	.	.	.	2e/	.
=46	=46	=46	=46	=46	=46
1F	glo-	1A	glo-	1f	glo-
2C/	-ri-	1c	-ri-	2e/	-ri-
2FF/	-o-	.	.	1c	.
=47	=47	=47	=47	=47	=47
1C	-sa	1G	-o-	.	.
.	.	.	.	2c/	-o-
1FF,	.	1F	-sa	2A/	-sa
.	.	.	.	1c	ma-
=48	=48	=48	=48	=48	=48
1F	ma-	1A	ma-	.	.
.	.	.	.	2d/	-ter
1E	-ter	1G	-ter	2e/	.
.	.	.	.	1g	gra-
=49	=49	=49	=49	=49	=49
1F	gra-	1A	gra-	.	.
.	.	.	.	2f\	-ti-
!	!	!	!	!LO:SIC:v:t=custos f	!
2C/	-cio-	1c	-ti-	2e\	.
!	!	!	!	!LO:LB:g=original	!
2FF/	-sa	.	.	1f	-osa
=50	=50	=50	=50	=50	=50
1C	.	1G	-o-	.	.
.	.	.	.	2e/	.
!LO:SIC:v:t=custos F	!	!	!	!	!
1FF	.	1F	-sa	1f	.
!LO:LB:g=original	!	!	!	!	!
=51	=51	=51	=51	=51	=51
!	!	!LO:SIC:v:t=custos G	!	!	!
1F	ro-	1A	ro-	1c	ro-
!	!	!LO:LB:g=original	!	!	!
1C	-sa	1G	-sa	1c	-sa
=52	=52	=52	=52	=52	=52
1F	for-	1A	for-	2A/	for
.	.	.	.	1d	mo-
1E	-mo-	1G	-mo-	.	.
.	.	.	.	2c/	-sa
=53	=53	=53	=53	=53	=53
1D	-sa	1F	-sa	1d,	.
1F	stel-	1A	stel-	2A/	stel-
.	.	.	.	1d	-la
=54	=54	=54	=54	=54	=54
1C	-la	1G	-la	.	.
.	.	.	.	2c/	lu-
1F	lu-	1A	lu-	2A/	.
.	.	.	.	2B/	.
=55	=55	=55	=55	=55	=55
1E	-mi-	1G	-mi-	1c	-mi-
!	!	!	!	!LO:SIC:v:t=custos A	!
1E	-no-	1G	-no-	1c	-no-
!	!	!	!	!LO:LB:g=original	!
=56	=56	=56	=56	=56	=56
1F,	-sa	1D	-sa	2A/	-sa
.	.	.	.	1d	au-
1FF	au-	1F	au-	.	.
.	.	.	.	1c	.
=57	=57	=57	=57	=57	=57
*lig	*	*lig	*	*	*
1GG	-di	1D	-di	.	.
.	.	.	.	2B/	.
1AA	.	1C	.	1c	-di
*Xlig	*	*Xlig	*	*	*
=58	=58	=58	=58	=58	=58
!LO:SIC:v:t=custos BB	!	!LO:SIC:v:t=custos F	!	!	!
1BB	et	1F	et	1d	.
!LO:LB:g=original	!	!LO:LB:g=original	!	!	!
2BB/	ex-	1F	ex-	2d/	et
2AA/	.	.	.	2c/	ex-
=59	=59	=59	=59	=59	=59
*	*	*lig	*	*	*
1GG	.	1G	-au-	1B	-au-
1FF	.	1A	.	2A/	.
.	.	.	.	1c	.
*	*	*Xlig	*	*	*
=60	=60	=60	=60	=60	=60
*	*	*lig	*	*	*
2FF/	-au-	1A	.	.	.
1F	.	.	.	2A/	.
.	.	1G	.	2B/	.
2E/	.	.	.	2c/	.
*	*	*Xlig	*	*	*
=61	=61	=61	=61	=61	=61
2D/	.	0F	.	1d	-di
2BB-X/	.	.	.	.	.
!	!	!	!	!LO:SIC:v:t=custos B	!
1D	.	.	.	2A/	.
!	!	!	!	!LO:LB:g=original	!
.	.	.	.	2B/	.
=62	=62	=62	=62	=62	=62
*	*	*lig	*	*	*
1C	.	1E	.	1c	.
*lig	*	*	*	*	*
1F	.	1D	.	2d/	.
.	.	.	.	2f\	.
*	*	*Xlig	*	*	*
=63	=63	=63	=63	=63	=63
1G	.	1E	.	1e	.
*Xlig	*	*lig	*	*	*
1F	-di	1F	di	1d	.
=64	=64	=64	=64	=64	=64
2B\	.	1D	.	2d/	.
2A\	de-	.	.	1f	.
*	*	*Xlig	*	*	*
!LO:SIC:v:t=custos A	!	!	!	!	!
2B\	.	1D	de	.	.
!LO:LB:g=original	!	!	!	!	!
1A	-can-	.	.	2f,\	.
=65	=65	=65	=65	=65	=65
.	.	1G	can-	2d/	de-
1G	-tan-	.	.	1e	-can-
.	.	1A	-tan-	.	.
2F/	-tes	.	.	2f\	.
=66	=66	=66	=66	=66	=66
1G	.	1G	-tes	1d	-tan-
1GG-X	stan-	1G	stan-	2d/	-tes
!	!	!	!	!LO:SIC:v:t=custos d	!
.	.	.	.	2B/	.
!	!	!	!	!LO:LB:g=original	!
=67	=67	=67	=67	=67	=67
!	!	!LO:SIC:v:t=custos c	!	!	!
1BB	-tes	1D	-tes	1d	stan-
!	!	!LO:LB:g=original	!	!	!
1FF	te-	1F	te-	1c	-tes
=68	=68	=68	=68	=68	=68
1C	-que	1E	-que	1c	te-
2GG/	col-	1D	col-	1d	-que
2BB/	.	.	.	.	.
=69	=69	=69	=69	=69	=69
1FF	-lav-	1A	-lav-	2c/	col-
.	.	.	.	1f	-lav-
*	*	*lig	*	*	*
1C	.	1G	.	.	.
.	.	.	.	2e\	.
=70	=70	=70	=70	=70	=70
2FF/	.	1F	.	1f	.
1F	.	.	.	.	.
*	*	*Xlig	*	*	*
.	.	1F	-dan-	2c/	.
2F/	-dan-	.	.	2d/	.
=71	=71	=71	=71	=71	=71
*	*	*lig	*	*	*
2G\	.	1E	.	2e/	-dan-
!LO:SIC:v:t=custos D	!	!	!	!	!
2E/	.	.	.	2g\	.
!LO:LB:g=original	!	!	!	!	!
2F\	.	1D	.	1f	.
1G	-tes	.	.	.	.
*	*	*Xlig	*	*	*
=72	=72	=72	=72	=72	=72
*	*	*lig	*	*	*
.	.	1D	-tes	1f	.
2F\	.	.	.	.	.
!	!	!	!	!LO:SIC:v:t=custos g	!
2G\	.	1C	.	1e	-tes
1C	.	.	.	.	.
!	!	!	!	!LO:LB:g=original	!
*	*	*Xlig	*	*	*
=73	=73	=73	=73	=73	=73
*	*	*lig	*	*	*
.	.	1E	.	1g	.
2C/	.	.	.	.	.
2D/	.	1D	.	1f	.
2BB/	.	.	.	.	.
*	*	*Xlig	*	*	*
=74	=74	=74	=74	=74	=74
2C/	.	1E	.	2e/	.
1E	.	.	.	1c	.
*	*	*lig	*	*	*
.	.	1F	.	.	.
1D	.	.	.	2d/	.
=75	=75	=75	=75	=75	=75
.	.	1G	.	1e	.
2C/	.	.	.	.	.
*	*	*Xlig	*	*	*
*	*	*lig	*	*	*
2D/	.	1D	.	1A	.
2F/	.	.	.	.	.
=76	=76	=76	=76	=76	=76
1E	.	1C	.	1c	.
*	*	*Xlig	*	*	*
!LO:SIC:v:t=custos D	!	!LO:SIC:v:t=custos A	!	!	!
1D	Ma-	1D	Ma-	1A	Ma-
!LO:LB:g=original	!LO:LB:g=original	!	!	!	!
=77	=77	=77	=77	=77	=77
*	*	*lig	*	*	*
2D/	-ri-	1D	-ri-	2A/	-ri-
2GG/	.	.	.	2B/	.
1AA	-a	1C	.	1c	.
*	*	*Xlig	*	*	*
=78	=78	=78	=78	=78	=78
2GG/	.	1D	.	2B-X/	.
1D	.	.	.	1A	-a
*	*	*lig	*	*	*
.	.	1F	.	.	.
2D/	.	.	.	1F	.
=79	=79	=79	=79	=79	=79
!	!	!	!	!LO:SIC:v:t=custos E	!
1C	.	1G	.	.	.
!	!	!	!	!LO:LB:g=original	!
.	.	.	.	2E/	.
*lig	*	*Xlig	*	*	*
*	*	*lig	*	*	*
1FF	.	1F	-a	1F	.
=80	=80	=80	=80	=80	=80
1C	.	1E	.	1G	.
*Xlig	*	*Xlig	*	*	*
*lig	*	*	*	*	*
1D	.	1F	.	2F/	.
.	.	.	.	1f	.
=81	=81	=81	=81	=81	=81
*	*	*lig	*	*	*
1C	.	1G	.	.	.
.	.	.	.	2e\	.
*Xlig	*	*	*	*	*
1AA	.	1F	.	1f	.
*	*	*Xlig	*	*	*
=82	=82	=82	=82	=82	=82
1GG	de-	1G	de-	1d	de-
1C	-i	1C	-i	1e,	-i
=83	=83	=83	=83	=83	=83
1BB	ma-	1D	ma-	1d	ma-
1FF	-ter	1F	-ter	1c	-ter
=84	=84	=84	=84	=84	=84
1F	gra-	1F	gra-	1c	gra-
!LO:SIC:v:t=custos G	!	!	!	!	!
1F	-ti-	1F	-ti-	2c/	-ti
!	!	!	!	!LO:SIC:v:t=custos e	!
.	.	.	.	2d/	.
!LO:LB:g=original	!	!	!	!LO:LB:g=original	!
=85	=85	=85	=85	=85	=85
*lig	*	*lig	*	*	*
1G	.	1E	.	2e/	.
.	.	.	.	2c/	.
1A	.	1D	.	2d/	.
.	.	.	.	1c	.
*Xlig	*	*Xlig	*	*	*
=86	=86	=86	=86	=86	=86
*	*	*lig	*	*	*
1F	-e	1D	-e	.	.
.	.	.	.	2B/	.
!	!	!LO:SIC:v:t=custos A	!	!	!
*	*	*	*	*lig	*
1G	.	1C	.	1c	.
*	*	*Xlig	*	*	*
!	!	!LO:LB:g=original	!	!	!
=87	=87	=87	=87	=87	=87
1F	.	1D	.	1A	.
*lig	*	*lig	*	*Xlig	*
1G	.	1C	.	1c	.
=88	=88	=88	=88	=88	=88
1A	.	1AA	.	2c/	.
.	.	.	.	1c	.
*Xlig	*	*Xlig	*	*	*
*	*	*lig	*	*	*
2D/	.	1D	.	.	.
2F/	.	.	.	2B/	.
=89	=89	=89	=89	=89	=89
1E	.	1C	.	1c	.
*	*	*Xlig	*	*	*
*	*	*lig	*	*	*
2D/	.	1D	.	2d/	.
1A	.	.	.	2f\	.
=90	=90	=90	=90	=90	=90
.	.	1E	.	1e	.
2G\	.	.	.	.	.
*	*	*Xlig	*	*	*
*	*	*lig	*	*	*
2A\	.	1F	.	1c	.
2F/	.	.	.	.	.
=91	=91	=91	=91	=91	=91
1F;	.	1D;	.	1d;	.
*	*	*Xlig	*	*	*
1r	.	1r	.	1r	.
=92||	=92||	=92||	=92||	=92||	=92||
1F	Act-	1F	Act-	1f	Ad-
*lig	*	*lig	*	*lig	*
1C	.	1G	.	1e	.
=93	=93	=93	=93	=93	=93
1FF	.	1A	.	1c	.
*Xlig	*	*Xlig	*	*Xlig	*
*lig	*	*lig	*	*	*
1FF	-us	1A	-us	2c/	-in
.	.	.	.	1f	.
=94	=94	=94	=94	=94	=94
1C	.	1c	.	.	.
.	.	.	.	2e\	.
*Xlig	*	*Xlig	*	*	*
1FF	na-	1A	na-	1f	na
=95	=95	=95	=95	=95	=95
1FF	-nos	1A	-nos	1f,	nos
*lig	*	*lig	*	*lig	*
1FF	de-	1A	de-	1f	de-
=96	=96	=96	=96	=96	=96
!	!	!LO:SIC:v:t=custos G	!	!	!
1C	.	1G	.	1e	.
*Xlig	*	*Xlig	*	*Xlig	*
!	!	!LO:LB:g=original	!	!	!
*lig	*	*lig	*	*lig	*
1BB	-i	1G	-i	1d	-i
=97	=97	=97	=97	=97	=97
1AA	.	1A	.	1c	.
*Xlig	*	*Xlig	*	*Xlig	*
1A	ge-	1F	ge-	1c	ge-
=98	=98	=98	=98	=98	=98
*	*	*	*	*lig	*
1A	-ni	1F	-ni	1d	-ni
*lig	*	*lig	*	*	*
1G	.	1E	.	1e	.
*	*	*	*	*Xlig	*
=99	=99	=99	=99	=99	=99
1F	.	1D	.	2A/	.
.	.	.	.	1d	.
*Xlig	*	*Xlig	*	*	*
1D	.	1F	.	.	.
.	.	.	.	1c	trix
=100	=100	=100	=100	=100	=100
!	!	!	!	!LO:SIC:v:t=custos B	!
1D	.	1F	.	.	.
!	!	!	!	!LO:LB:g=original	!
.	.	.	.	2B/	ma-
*lig	*	*lig	*	*	*
1C	.	1G	.	1c	.
=101	=101	=101	=101	=101	=101
1AA	.	1A	.	1c	.
*Xlig	*	*Xlig	*	*	*
!LO:SIC:v:t=custos C	!	!	!	!	!
*	*	*lig	*	*	*
1FF	.	1A	.	2c/	-ri-
.	.	.	.	1f	.
!LO:LB:g=original	!	!	!	!	!
=102	=102	=102	=102	=102	=102
1C	.	1G	.	.	.
.	.	.	.	2e\	.
*	*	*Xlig	*	*	*
0FF	.	0F	.	1f	.
=103	=103	=103	=103	=103	=103
.	.	.	.	2f\	.
.	.	.	.	1c	.
*lig	*	*	*	*	*
1C	.	1E	.	.	.
.	.	.	.	2e\	.
=104	=104	=104	=104	=104	=104
1BB	.	1D	.	1f	.
*Xlig	*	*	*	*	*
*lig	*	*	*	*	*
1C	.	1E	.	2e/	.
.	.	.	.	1c	-a
=105	=105	=105	=105	=105	=105
*	*	*lig	*	*	*
1FF	a	1F	a	.	.
.	.	.	.	2c/	.
*Xlig	*	*	*	*	*
!	!	!LO:SIC:v:t=custos D	!	!LO:SIC:v:t=custos A	!
1F	o-	1D	.	1d	.
*	*	*Xlig	*	*	*
!	!	!LO:LB:g=original	!	!LO:LB:g=original	!
=106	=106	=106	=106	=106	=106
*lig	*	*lig	*	*	*
1F	.	1D	o-	2A/	o-
.	.	.	.	2B/	.
1A	.	1AA	.	1c	.
*Xlig	*	*Xlig	*	*	*
=107	=107	=107	=107	=107	=107
1G	.	1C	.	1c	.
*lig	*	*lig	*	*	*
1F	.	1D	.	2A/	.
.	.	.	.	1d	.
=108	=108	=108	=108	=108	=108
1D	.	1F	.	.	.
.	.	.	.	2d/	.
*Xlig	*	*Xlig	*	*	*
1A	-ra	1D	-ra	1f	-ra
=109	=109	=109	=109	=109	=109
2B\	pro-	1D	pro-	1f	pro-
2A\	.	.	.	.	.
*	*	*lig	*	*	*
2B\	.	1D	-po-	2f/	-po
1A	-po-	.	.	2d/	.
=110	=110	=110	=110	=110	=110
.	.	1F	.	2c/	.
1D	.	.	.	1d	.
*	*	*Xlig	*	*	*
.	.	1D	-pu-	.	.
!	!	!	!	!LO:SIC:v:t=custos B-	!
1F	-pu-	.	.	2A/	.
!	!	!	!	!LO:LB:g=original	!
=111	=111	=111	=111	=111	=111
.	.	1D	-lo	1B-X	lo-
!LO:SIC:v:t=custos BB-	!	!	!	!	!
2F\	-lo	.	.	.	.
!LO:LB:g=original	!	!	!	!	!
1BB-X	pre-	1D	pre-	1B-	-pre-
=112	=112	=112	=112	=112	=112
1GG	-ce	1F	-ce	1A	-ce-
1D	pi-	1F	pi-	0A	-pi-
=113	=113	=113	=113	=113	=113
*lig	*	*lig	*	*	*
1D	.	1E	.	.	.
1AA	.	1D	.	0F	.
*Xlig	*	*Xlig	*	*	*
=114	=114	=114	=114	=114	=114
*	*	*lig	*	*	*
1D	-a-	1D	-a-	.	.
*lig	*	*	*	*	*
!	!	!LO:SIC:v:t=custos E	!	!	!
1F	.	1C	.	0G	-a
*	*	*Xlig	*	*	*
!	!	!LO:LB:g=original	!	!	!
=115	=115	=115	=115	=115	=115
*	*	*lig	*	*	*
1E	.	1E	.	.	.
*Xlig	*	*	*	*	*
*lig	*	*	*	*	*
1C	.	1D	.	2F/	.
.	.	.	.	2f\	.
*	*	*Xlig	*	*	*
=116	=116	=116	=116	=116	=116
1D	.	1E	.	2e\	.
.	.	.	.	1g	.
*Xlig	*	*lig	*	*	*
1AA	.	1F	.	.	.
.	.	.	.	1f	.
=117	=117	=117	=117	=117	=117
*lig	*	*	*	*	*
1A	.	1G	.	.	.
.	.	.	.	2e/	.
*	*	*Xlig	*	*	*
*	*	*lig	*	*	*
1B	.	1D	.	1f	.
*Xlig	*	*	*	*	*
=118	=118	=118	=118	=118	=118
!	!	!	!	!LO:SIC:v:t=custos e	!
2A\	.	1C	.	1e	.
*Xlig	*	*Xlig	*	*	*
2F\	.	.	.	.	.
!	!	!	!	!LO:LB:g=original	!
1G	.	1C	in-	1e	ma-
=119	=119	=119	=119	=119	=119
2G\	-ni-	1C	-ter	1e	-ter
1E	-ter	.	.	.	.
*	*	*lig	*	*	*
.	.	1E	ve-	2e\	ve-
!LO:SIC:v:t=custos C	!	!	!	!	!
2E/	.	.	.	1c	.
!LO:LB:g=original	!	!	!	!	!
=120	=120	=120	=120	=120	=120
1C	.	1F	.	.	.
.	.	.	.	2c/	.
*	*	*Xlig	*	*	*
1FF	-ve-	1D	-ni	1d	-ni
=121	=121	=121	=121	=121	=121
1BB-X	-ni	1D	pro-	1d	pro-
*	*	*lig	*	*	*
2BB-/	pro-	1D	-cle	1d	-cle-
2GG/	.	.	.	.	.
=122	=122	=122	=122	=122	=122
*lig	*	*	*	*	*
1BB	-cte-	1C	.	2e/	.
.	.	.	.	1c	.
*	*	*Xlig	*	*	*
1AA	.	1D	.	.	.
.	.	.	.	2B/	.
*Xlig	*	*	*	*	*
=123	=123	=123	=123	=123	=123
*	*	*lig	*	*	*
1GG	.	1F	.	1c	.
2FF/	-ro	1G	.	2B/	.
1F	.	.	.	2G/	.
*	*	*Xlig	*	*	*
=124	=124	=124	=124	=124	=124
*	*	*lig	*	*	*
.	.	1F	.	2A/	.
!	!	!	!	!LO:SIC:v:t=custos c	!
2E/	.	.	.	2B/	-ro
!	!	!LO:SIC:v:t=custos F	!	!	!
!	!	!	!	!LO:LB:g=original	!
1D	.	1E	.	1c	.
*	*	*Xlig	*	*	*
!	!	!LO:LB:g=original	!	!	!
=125	=125	=125	=125	=125	=125
2C/	.	1F	.	2c/	.
1AA	.	.	.	1d	.
*	*	*lig	*	*	*
.	.	1G	.	.	.
1BB	.	.	.	2e/	.
=126	=126	=126	=126	=126	=126
.	.	1F	.	1f	.
2C/	.	.	.	.	.
*	*	*Xlig	*	*	*
*	*	*lig	*	*	*
1D	.	1G	dans	1d	dans
=127	=127	=127	=127	=127	=127
*lig	*	*	*	*	*
1GG	dans	1C	.	2c/	so-
.	.	.	.	2e/	-la-
*	*	*Xlig	*	*	*
!LO:SIC:v:t=custos B	!	!	!	!	!
1AA	.	1D	vi-	1d	.
*Xlig	*	*	*	*	*
!LO:LB:g=original	!	!	!	!	!
=128	=128	=128	=128	=128	=128
1BB	-so-	1F	-te	1c	.
1FF	-la	1F	so-	2c/	.
.	.	.	.	2d/	.
=129	=129	=129	=129	=129	=129
*	*	*lig	*	*	*
1FF	ci-	1E	-la-	2e/	.
.	.	.	.	2c/	.
*lig	*	*	*	*	*
!	!	!	!	!LO:SIC:v:t=custos c	!
1C	.	1D	.	2d/	.
!	!	!	!	!LO:LB:g=original	!
.	.	.	.	1c	-cia
*	*	*Xlig	*	*	*
=130	=130	=130	=130	=130	=130
*	*	*lig	*	*	*
1GG	.	1D	-ci-	.	.
.	.	.	.	2B/	.
*Xlig	*	*	*	*lig	*
1GG	a	1C	.	1c	.
*	*	*Xlig	*	*	*
=131	=131	=131	=131	=131	=131
*lig	*	*	*	*	*
1G	.	1D	-a	1A	.
*	*	*lig	*	*Xlig	*
1F	.	1C	.	1e	.
*Xlig	*	*	*	*	*
=132	=132	=132	=132	=132	=132
*	*	*	*	*lig	*
1G	.	1AA	.	1e	.
*	*	*Xlig	*	*	*
*	*	*lig	*	*	*
1A	.	1D	.	1d	.
*	*	*	*	*Xlig	*
=133	=133	=133	=133	=133	=133
*lig	*	*	*	*	*
1F	.	1C	.	1e	.
*	*	*Xlig	*	*	*
*	*	*lig	*	*	*
1E	.	1D	.	1f	.
*Xlig	*	*	*	*	*
=134	=134	=134	=134	=134	=134
1D	.	1E	.	1e	.
*	*	*Xlig	*	*	*
*	*	*lig	*	*	*
1C	.	1F	.	1d	.
=135	=135	=135	=135	=135	=135
!	!	!LO:SIC:v:t=custos C	!	!	!
1D	.	0D;	.	2A/	.
.	.	.	.	1B-X	.
2D/	.	.	.	.	.
1GG	.	.	.	2B-/	.
*	*	*Xlig	*	*	*
!	!	!LO:LB:g=original	!	!	!
=136	=136	=136	=136	=136	=136
!	!	!	!	!LO:SIC:v:t=custos c	!
.	.	0r	.	1A;	.
2GG/	.	.	.	.	.
!LO:SIC:v:t=custos C	!	!	!	!	!
1D;	.	.	.	1r	.
!LO:LB:g=original	!	!	!	!LO:LB:g=original	!
=137||	=137||	=137||	=137||	=137||	=137||
1C	In-	1C	In-	1c	In-
2GG/	-ter	1D	-ter	2B/	-ter
1D	.	.	.	1A	ce-
=138	=138	=138	=138	=138	=138
*	*	*lig	*	*	*
.	.	1F	ce-	.	.
2D/	ce-	.	.	1F	.
1C	.	1G	.	.	.
.	.	.	.	2E/	.
*	*	*Xlig	*	*	*
=139	=139	=139	=139	=139	=139
1D	-de	1D	-de	2F/	-de
.	.	.	.	1f	pro-
1F	pro-	1D	pro-	.	.
.	.	.	.	2d/	-de-
=140	=140	=140	=140	=140	=140
*	*	*lig	*	*	*
2F/	-de-	1F	-de-	2c/	-vo-
1D	.	.	.	2d/	.
.	.	1E	.	2e/	.
2C/	vo-	.	.	1g	.
*	*	*Xlig	*	*	*
=141	=141	=141	=141	=141	=141
*	*	*lig	*	*	*
1D	.	1F	-vo	.	.
.	.	.	.	1f	.
1C	-to	1G	.	.	.
.	.	.	.	2e/	-to
*	*	*Xlig	*	*	*
=142	=142	=142	=142	=142	=142
!	!	!	!	!LO:SIC:v:t=custos e	!
1BB-X	fem-	1D	to	1f	fe-
!	!	!	!	!LO:LB:g=original	!
1C	.	1E	fe-	1e	-mi-
=143	=143	=143	=143	=143	=143
*	*	*lig	*	*	*
2BB/	.	1F	-mi-	2d/	.
!LO:SIC:v:t=custos GG	!	!	!	!	!
2AA/	.	.	.	2c/	.
!LO:LB:g=original	!	!	!	!	!
1GG	.	1G	.	1B	-ne
*	*	*Xlig	*	*	*
=144	=144	=144	=144	=144	=144
*lig	*	*	*	*	*
1D	-ne	1F	-ne	2A/	.
.	.	.	.	1d	o
*	*	*lig	*	*	*
1AA	.	1E	.	.	.
.	.	.	.	2c/	.
*Xlig	*	*	*	*	*
=145	=145	=145	=145	=145	=145
2BB/	o	1D	.	2d/	.
2FF/	.	.	.	1c	.
*	*	*Xlig	*	*	*
*	*	*lig	*	*	*
1GG	.	1D	o	.	.
.	.	.	.	2B/	.
=146	=146	=146	=146	=146	=146
!	!	!LO:SIC:v:t=custos E	!	!	!
1AA	.	1C	.	2c/	.
.	.	.	.	1c	.
*	*	*Xlig	*	*	*
!	!	!LO:LB:g=original	!	!	!
*	*	*lig	*	*	*
1C	.	1E	.	.	.
.	.	.	.	1A	.
=147	=147	=147	=147	=147	=147
1D	.	1D	.	.	.
.	.	.	.	2F/	.
*	*	*Xlig	*	*	*
1C	.	1E	.	1G	.
=148	=148	=148	=148	=148	=148
*	*	*lig	*	*	*
!	!	!	!	!LO:SIC:v:t=custos B	!
2FF/	.	1F	.	1A	.
1F	.	.	.	.	.
!	!	!	!	!LO:LB:g=original	!
.	.	1G	.	1B	.
2E/	.	.	.	.	.
*	*	*Xlig	*	*	*
=149	=149	=149	=149	=149	=149
*	*	*lig	*	*	*
1F	.	1D	.	2A/	.
.	.	.	.	2B/	.
!LO:SIC:v:t=custos A	!	!	!	!	!
1G	.	1C	.	1c	.
*	*	*Xlig	*	*	*
!LO:LB:g=original	!	!	!	!	!
=150	=150	=150	=150	=150	=150
*	*	*lig	*	*lig	*
1A	se-	1E	se-	1G	se-
2B\	.	1F	.	1F	.
1A	xu-	.	.	.	.
*	*	*Xlig	*	*Xlig	*
=151	=151	=151	=151	=151	=151
.	.	1D	-xu-	1f	-xv
2F/	.	.	.	.	.
*	*	*lig	*	*	*
1G	-to	1D	-to	2d/	to
.	.	.	.	1f	.
=152	=152	=152	=152	=152	=152
1F	.	1C	.	.	.
.	.	.	.	2e\	.
*lig	*	*Xlig	*	*	*
1D	.	1D	.	2f\	.
.	.	.	.	2F/	.
=153	=153	=153	=153	=153	=153
*	*	*lig	*	*	*
1C	.	1F	.	2A/	.
.	.	.	.	2B/	.
*Xlig	*	*	*	*	*
1FF	.	1G	.	1c	.
*	*	*Xlig	*	*	*
=154	=154	=154	=154	=154	=154
*	*	*lig	*	*	*
!	!	!	!	!LO:SIC:v:t=custos e	!
1C	to	1F	to	1A	to
!	!	!	!	!LO:LB:g=original	!
2C/	.	1E	.	1e	.
2BB/	.	.	.	.	.
*	*	*Xlig	*	*	*
=155	=155	=155	=155	=155	=155
1AA	.	1G	.	2e\	.
.	.	.	.	2d/	.
*	*	*lig	*	*	*
2AA/	.	1A	.	1c	.
2FF/	.	.	.	.	.
=156	=156	=156	=156	=156	=156
!	!	!LO:SIC:v:t=custos G	!	!	!
1C	.	1c	.	2c/	.
.	.	.	.	1f	.
*	*	*Xlig	*	*	*
!	!	!LO:LB:g=original	!	!	!
!LO:SIC:v:t=custos FF	!	!	!	!	!
*	*	*lig	*	*	*
1FF	.	1G	.	.	.
.	.	.	.	2e\	.
!LO:LB:g=original	!	!	!	!	!
=157	=157	=157	=157	=157	=157
1FF	Sen-	1F	.	1f	.
*	*	*Xlig	*	*	*
*	*	*lig	*	*	*
2C/	.	1F	Sen-	1f	.
2GG/	.	.	.	.	.
=158	=158	=158	=158	=158	=158
2BB-X/	ci-	1G	.	2e/	Sen-
2AA/	.	.	.	1d	.
*	*	*Xlig	*	*	*
*	*	*lig	*	*	*
1BB-	.	1F	-ci-	.	.
.	.	.	.	2c/	-ciant
=159	=159	=159	=159	=159	=159
1FF	ant	1D	.	1d	.
*	*	*Xlig	*	*	*
2FF/	.	1F	-ant	1c,	.
1F	o-	.	.	.	.
=160	=160	=160	=160	=160	=160
.	.	1F	o-	1A	o-
2E/	.	.	.	.	.
!	!	!	!	!LO:SIC:v:t=custos A	!
1D	-m(n)es	1G	-mnes	1G	-mnes
!	!	!	!	!LO:LB:g=original	!
=161	=161	=161	=161	=161	=161
1C	tu-	1F	tu-	2A/	tu-
.	.	.	.	1F	.
1D	-u(m)	1G	-um	.	.
.	.	.	.	2E/	-um
=162	=162	=162	=162	=162	=162
1BB-X	u-	1F	u-	2F/	.
.	.	.	.	1f	u-
1D	-na-	1D	-na-	.	.
.	.	.	.	2f\	-na
=163	=163	=163	=163	=163	=163
1BB	-me(n)	1F	-men	1d,	men
!LO:SIC:v:t=custos C	!	!	!	!	!
1FF	ala-	1F	ala-	1d	.
!LO:LB:g=original	!	!	!	!	!
=164	=164	=164	=164	=164	=164
!	!	!LO:SIC:v:t=custos G	!	!	!
1C	.	1A	.	2c/	ala-
.	.	.	.	1f	.
!	!	!LO:LB:g=original	!	!	!
2FF/	-men	1G	-men	.	.
1F	so-	.	.	2e/	-men
=165	=165	=165	=165	=165	=165
.	.	1A	sa-	1f,	.
2D/	-la-	.	.	.	.
2F/	-men	1F	-la-	2c/	su-
1A	su-	.	.	1d	-ble-
=166	=166	=166	=166	=166	=166
.	.	1D	-men	.	.
2D\	-ble-	.	.	1f	-na-
1G	-va	1D	sub-	.	.
!	!	!	!	!LO:SIC:v:t=custos e	!
.	.	.	.	2f\	.
!	!	!	!	!LO:LB:g=original	!
=167	=167	=167	=167	=167	=167
*lig	*	*	*	*	*
1F	men	1C	-le-	1e	.
1D	.	1D	-va-	0d	-men
*Xlig	*	*	*	*	*
=168	=168	=168	=168	=168	=168
2BB-X/	.	1F	-men	.	.
1D	.	.	.	.	.
.	.	1F	A-	2d/	A-
2AA/	A-	.	.	1f	.
=169	=169	=169	=169	=169	=169
*	*	*lig	*	*	*
2BB/	.	1A	.	.	.
2C/	.	.	.	2c/	.
*	*	*	*	*	*
0F	.	1G	.	2d/	.
.	.	.	.	2e/	.
*	*	*Xlig	*	*	*
=170	=170	=170	=170	=170	=170
.	.	0F	.	0f	.
!LO:SIC:v:t=custos C	!	!	!	!	!
1AA	.	.	.	.	.
!LO:LB:g=original	!	!	!	!	!
=171	=171	=171	=171	=171	=171
*	*	*lig	*	*	*
1C	men	1A	.	0e	.
!	!	!LO:SIC:v:t=custos F	!	!	!
0FF	.	1G	.	.	.
!	!	!LO:LB:g=original	!	!	!
*	*	*Xlig	*	*	*
=172	=172	=172	=172	=172	=172
.	.	0F	.	1c	.
1C	.	.	.	2c/	.
.	.	.	.	2d/	.
=173	=173	=173	=173	=173	=173
*lig	*	*	*	*	*
1D	.	1E	.	1e	.
!	!	!	!	!LO:SIC:v:t=custos d	!
1AA	.	1D	.	2f\	.
!	!	!	!	!LO:LB:g=original	!
.	.	.	.	1d	.
*Xlig	*	*	*	*	*
=174	=174	=174	=174	=174	=174
1A	.	1E	.	.	.
.	.	.	.	2c/	.
2A\	.	1F	.	0d	.
1F	.	.	.	.	.
=175	=175	=175	=175	=175	=175
.	.	0D;	-men	.	.
2F/	.	.	.	.	.
1D	.	.	.	0A	.
=176	=176	=176	=176	=176	=176
2D/	.	0ryy	.	.	.
1BB	.	.	.	.	.
.	.	.	.	2A/	.
2BB/	.	.	.	1B-X	.
=177	=177	=177	=177	=177	=177
0GG	.	0ryy	.	.	.
.	.	.	.	2F/	-men
.	.	.	.	2G/	.
.	.	.	.	2A/	.
=178	=178	=178	=178	=178	=178
!LO:N:vis=00	!	!	!	!	!
0D;	.	0ryy	.	1B	.
!	!	!	!	!LO:N:vis=00	!
.	.	.	.	1A;	.
==	==	==	==	==	==
*-	*-	*-	*-	*-	*-
!!!system-decoration: [(s1,s2,s3)]
!!!AIN: 1 bass 1 tenor
!!!ENC: Marta Opryszak
!!!END: 2022-01-16
!!!ENC: Natalia Wrzos
!!!END: 2022-01-23
